!!!OTL: MAETEN ES EN GOOD MANN
!!!ARE: Europa, Mitteleuropa, Deutschland, Bergisches Land, Barmen
!!!SCT: E1269
!!!YEM: Copyright 1995, estate of Helmut Schaffrath.
**kern
*ICvox
*Ivox
*M2/4
*k[b-]
*F:
=1
{8cc
8cc
8cc
8dd
=2
4cc
8a
8r}
=3
{8cc
8cc
8cc
8dd
=4
8cc
8cc
8a}
{8b-
=5
8cc
8cc
8cc
8dd
=6
4cc
8a}
{8b-
=7
8cc
8cc
8cc
8dd
=8
4cc
4r}
=9
{8cc
8b-
8a
8dd
=10
8cc
8b-
4a}
=11
{8cc
8cc
8cc
8dd
=12
8cc
8b-
4a}
=13
{8cc
8cc
8cc
8cc
=14
4dd
8cc}
{8cc
=15
8b-
8b-
8a
8cc
=16
4g
8f
8r}
=17
{4cc
8a
8r
=18
4cc
8a
8r}
=19
{8dd
8cc
8b-
8a
=20
4g
8f
8r}
==
!!!AGN: Ansinge -, Brauchtums - Lied, Kirchen - Fest, Sankt Martin
!!!ONB: ESAC (Essen Associative Code) Database: ERK3
!!!AMT: simple duple
!!!AIN: vox
!!!EED: Helmut Schaffrath
!!!EEV: 1.0
*-
